icons/Qogir/scalable/apps/opera.svg

<svg width="64" height="64" version="1.1" viewBox="0 0 16.933 16.933" xmlns="http://www.w3.org/2000/svg">
 <g>
  <path transform="scale(.26458)" d="m32.002 4.9961a27.001 27.001 0 0 0-27.002 27.002 27.001 27.001 0 0 0 27.002 27.002 27.001 27.001 0 0 0 27.002-27.002 27.001 27.001 0 0 0-27.002-27.002zm-0.001953 6.0039a17 21 0 0 1 17 21 17 21 0 0 1-17 21 17 21 0 0 1-17-21 17 21 0 0 1 17-21z" fill="#ed1528" opacity=".9" stroke="#b50f1e" stroke-width="1.9994" style="paint-order:stroke markers fill"/>
  <path transform="scale(.26458)" d="m32.002 4.9961c-14.913-2.629e-4 -27.002 12.089-27.002 27.002-2.629e-4 14.913 12.089 27.002 27.002 27.002 14.913 2.63e-4 27.002-12.089 27.002-27.002 2.63e-4 -14.913-12.089-27.002-27.002-27.002zm-0.001953 8.0039c7.732-1.85e-4 14 8.5065 14 19 1.29e-4 10.493-6.268 19-14 19-7.732 1.93e-4 -14-8.5065-14-19-1.35e-4 -10.493 6.268-19 14-19z" fill="#ff1b2d" stroke-width="3.7796" style="paint-order:stroke markers fill"/>
  <path transform="scale(.26458)" d="m38.5 10c-5.4645-1.034e-4 -10.417 2.3086-14.092 6.0488 2.1881-1.922 4.7913-3.0489 7.5918-3.0488 7.732-1.85e-4 14 8.5065 14 19 1.29e-4 10.493-6.268 19-14 19-2.8005 7e-5 -5.4037-1.1268-7.5918-3.0488 3.6748 3.7402 8.6273 6.0489 14.092 6.0488 11.322 2.19e-4 20.5-9.8496 20.5-22 1.93e-4 -12.15-9.1781-22-20.5-22zm-20.367 19.523c-0.009076 0.086922-0.021166 0.17254-0.029296 0.25976 0.007506-0.087562 0.020915-0.17257 0.029296-0.25976zm-0.074218 0.89258c-0.034726 0.52354-0.058603 1.051-0.058594 1.584-7e-6 -0.53456 0.026703-1.0606 0.058594-1.584zm-0.058594 1.584c-9e-6 0.53303 0.023868 1.0604 0.058594 1.584-0.031891-0.52338-0.058601-1.0494-0.058594-1.584zm0.10352 2.2168c0.00813 0.087226 0.02022 0.17284 0.029296 0.25976-0.008381-0.087195-0.02179-0.1722-0.029296-0.25976z" fill="#af0e0e" stroke-width="3.7796" style="paint-order:stroke markers fill"/>
 </g>
</svg>

<svg xmlns="http://www.w3.org/2000/svg" width="64" height="64" viewBox="0 0 16.933 16.933"><path fill="#ed1528" stroke="#b50f1e" stroke-width="1.999" d="M32.002 4.996A27 27 0 0 0 5 31.998 27 27 0 0 0 32.002 59a27 27 0 0 0 27.002-27.002A27 27 0 0 0 32.002 4.996zM32 11a17 21 0 0 1 17 21 17 21 0 0 1-17 21 17 21 0 0 1-17-21 17 21 0 0 1 17-21z" opacity=".9" style="paint-order:stroke markers fill" transform="scale(.26458)"/><path fill="#ff1b2d" d="M32.002 4.996C17.089 4.996 5 17.086 5 31.998 5 46.911 17.089 59 32.002 59s27.002-12.089 27.002-27.002S46.915 4.996 32.002 4.996M32 13c7.732 0 14 8.507 14 19s-6.268 19-14 19-14-8.507-14-19 6.268-19 14-19" style="paint-order:stroke markers fill" transform="scale(.26458)"/><path fill="#af0e0e" d="M38.5 10c-5.465 0-10.417 2.309-14.092 6.049C26.596 14.127 29.199 12.999 32 13c7.732 0 14 8.507 14 19s-6.268 19-14 19c-2.8 0-5.404-1.127-7.592-3.049 3.675 3.74 8.627 6.05 14.092 6.049C49.822 54 59 44.15 59 32s-9.178-22-20.5-22M18.133 29.523q-.016.13-.03.26c.008-.088.022-.173.03-.26m-.029 4.693q.014.13.029.26c-.008-.087-.022-.172-.03-.26z" style="paint-order:stroke markers fill" transform="scale(.26458)"/></svg>
